tela-icon-theme/src/scalable/apps/freetube.svg

<svg width="64" height="64" version="1" xmlns="http://www.w3.org/2000/svg">
 <path d="m9.9 6c-2.1606 0-3.9 1.7394-3.9 3.9v44.2c0 2.1606 1.7394 3.9 3.9 3.9h32.5c8.6424 0 15.6-6.9576 15.6-15.6v-32.5c0-2.1606-1.7394-3.9-3.9-3.9h-32.5z" fill="#f2f2f2" stroke-width=".92857"/>
 <path d="m14.75 12c-1.5235 0-2.75 1.2743-2.75 2.8571v30c0 4.2857 5.5 7.1429 8.25 7.1429h2.75v-37.143c0-1.5829-1.2265-2.8571-2.75-2.8571z" fill="#f04242"/>
 <path d="m26 20.25c0 1.5235 1.2676 2.75 2.8421 2.75h17.053c4.2632 0 7.1053-5.5 7.1053-8.25v-2.75h-24.158c-1.5745 0-2.8421 1.2265-2.8421 2.75z" fill="#f04242"/>
 <path d="m27.321 26a1.2913 1.1415 0 0 0-1.3213 1.1426v14.718a1.2913 1.1415 0 0 0 1.9361 0.98692l14.419-7.3588a1.2913 1.1415 0 0 0 0-1.9762l-14.419-7.3588a1.2913 1.1415 0 0 0-0.61487-0.15331z" fill="#14a4df"/>
</svg>

<svg xmlns="http://www.w3.org/2000/svg" width="64" height="64" version="1"><path fill="#f2f2f2" d="M9.9 6C7.74 6 6 7.74 6 9.9v44.2C6 56.26 7.74 58 9.9 58h32.5C51.042 58 58 51.042 58 42.4V9.9C58 7.74 56.26 6 54.1 6H21.6z"/><path fill="#f04242" d="M14.75 12C13.226 12 12 13.274 12 14.857v30C12 49.143 17.5 52 20.25 52H23V14.857C23 13.274 21.774 12 20.25 12zM26 20.25c0 1.524 1.268 2.75 2.842 2.75h17.053C50.158 23 53 17.5 53 14.75V12H28.842C27.268 12 26 13.226 26 14.75z"/><path fill="#14a4df" d="M27.321 26A1.291 1.141 0 0 0 26 27.143V41.86a1.291 1.141 0 0 0 1.936.987l14.419-7.36a1.291 1.141 0 0 0 0-1.975l-14.42-7.36a1.291 1.141 0 0 0-.614-.153z"/></svg>
